src/assets/icons/monitor-camera.svg

<svg xmlns="http://www.w3.org/2000/svg" viewBox="0 0 24 24"><path d="M8.25 24.003a.75.75 0 010-1.5h3v-3h-7.5A3.754 3.754 0 010 15.753v-12A3.754 3.754 0 013.75.003h16.5A3.754 3.754 0 0124 3.753v12a3.754 3.754 0 01-3.75 3.75h-7.5v3h3a.75.75 0 010 1.5h-7.5zm-6.75-8.25a2.252 2.252 0 002.25 2.25h16.5a2.252 2.252 0 002.25-2.25h-21zm21-1.5v-10.5a2.252 2.252 0 00-2.25-2.25H3.75a2.252 2.252 0 00-2.25 2.25v10.5h21z"/><path d="M8.125 12.75A2.129 2.129 0 016 10.63V5.128a2.13 2.13 0 012.125-2.125h5.5a2.13 2.13 0 012.116 1.93l1.226-.5a.746.746 0 01.702.073.749.749 0 01.331.622v5.5a.747.747 0 01-.751.75.74.74 0 01-.283-.056l-1.226-.499a2.13 2.13 0 01-2.116 1.927H8.125zm0-8.247a.627.627 0 00-.625.626v5.499a.625.625 0 00.625.622h5.5c.344 0 .624-.28.625-.624v-.914a.747.747 0 01.75-.75c.097 0 .193.019.283.056l1.217.495V6.244l-1.217.496a.744.744 0 01-.702-.073.749.749 0 01-.331-.622v-.917a.627.627 0 00-.625-.625h-5.5z"/></svg>

<?xml version="1.0" encoding="utf-8"?>
<!-- Generator: Adobe Illustrator 22.1.0, SVG Export Plug-In . SVG Version: 6.00 Build 0)  -->
<svg version="1.1" id="Layer_1" xmlns="http://www.w3.org/2000/svg" xmlns:xlink="http://www.w3.org/1999/xlink" x="0px" y="0px"
	 viewBox="0 0 24 24" style="enable-background:new 0 0 24 24;" xml:space="preserve">
<title>monitor-camera</title>
<g>
	<path d="M8.25,24.003c-0.414,0-0.75-0.336-0.75-0.75s0.336-0.75,0.75-0.75h3v-3h-7.5c-2.068,0-3.75-1.682-3.75-3.75v-12
		c0-2.068,1.682-3.75,3.75-3.75h16.5c2.068,0,3.75,1.682,3.75,3.75v12c0,2.068-1.682,3.75-3.75,3.75h-7.5v3h3
		c0.414,0,0.75,0.336,0.75,0.75s-0.336,0.75-0.75,0.75H8.25z M1.5,15.753c0,1.241,1.009,2.25,2.25,2.25h16.5
		c1.241,0,2.25-1.009,2.25-2.25H1.5z M22.5,14.253v-10.5c0-1.241-1.009-2.25-2.25-2.25H3.75c-1.241,0-2.25,1.009-2.25,2.25v10.5
		H22.5z"/>
	<path d="M8.125,12.75c-1.169,0-2.122-0.951-2.125-2.12V5.128c0.001-1.171,0.954-2.124,2.125-2.125h5.5
		c1.105,0.001,2.017,0.85,2.116,1.93l1.226-0.5c0.091-0.037,0.186-0.055,0.283-0.055c0.15,0,0.295,0.044,0.419,0.128
		C17.876,4.645,18,4.878,18,5.128v5.5c0,0.25-0.124,0.483-0.332,0.622c-0.124,0.083-0.269,0.128-0.419,0.128
		c-0.098,0-0.193-0.019-0.283-0.056l-1.226-0.499c-0.101,1.079-1.012,1.927-2.116,1.927H8.125z M8.125,4.503
		C7.781,4.503,7.5,4.784,7.5,5.129v5.499c0.001,0.343,0.281,0.622,0.625,0.622h5.5c0.344,0,0.624-0.28,0.625-0.624V9.712
		c0-0.25,0.124-0.483,0.332-0.622C14.706,9.006,14.85,8.962,15,8.962c0.097,0,0.193,0.019,0.283,0.056L16.5,9.513V6.244L15.283,6.74
		C15.192,6.776,15.097,6.795,15,6.795c-0.15,0-0.295-0.044-0.419-0.128c-0.207-0.139-0.331-0.372-0.331-0.622V5.128
		c0-0.344-0.281-0.625-0.625-0.625H8.125z"/>
</g>
</svg>
